src/assets/icons/svg/stars.svg

<svg width="28" height="28" viewBox="0 0 28 28" fill="none" xmlns="http://www.w3.org/2000/svg">
<path d="M19.719 20.4273C16.665 19.7093 15.5375 18.5955 15.0789 15.8436C14.9911 15.3168 14.5358 14.9305 14.0018 14.9295C14.0011 14.9295 14.0005 14.9295 13.9998 14.9295C13.4668 14.9295 13.0112 15.314 12.9217 15.8397C12.4538 18.5882 11.2849 19.7454 8.28905 20.4254C7.79408 20.5377 7.44139 20.9759 7.43754 21.4837C7.43348 21.9912 7.77934 22.4347 8.2726 22.5548C11.3148 23.2954 12.4017 24.3718 12.9249 27.1624C13.0221 27.6802 13.4741 28.0545 13.9998 28.0545H14.0129C14.5439 28.0483 14.9938 27.6612 15.0795 27.137C15.5334 24.356 16.6176 23.2858 19.719 22.5569C20.2131 22.4407 20.5624 21.9998 20.5624 21.492C20.5624 20.9844 20.2131 20.5435 19.719 20.4273ZM14.906 22.4841C14.5478 22.8318 14.2378 23.2219 13.9729 23.6624C13.7134 23.2388 13.4147 22.8626 13.0734 22.5261C12.6767 22.1352 12.2248 21.7968 11.6968 21.5005C12.6846 20.9485 13.4372 20.2372 13.9943 19.3273C14.2536 19.7518 14.555 20.1301 14.9022 20.4704C15.2931 20.8535 15.7458 21.1891 16.2732 21.4834C15.7479 21.7727 15.2989 22.1029 14.906 22.4841ZM10.7188 3.32737C10.7226 2.8198 11.0753 2.38166 11.5703 2.26929C12.5752 2.04114 12.7892 1.74356 12.9217 0.964693C13.0112 0.439179 13.4668 0.054657 13.9998 0.054657H14.0018C14.5358 0.0555115 14.9911 0.441956 15.0789 0.968538C15.2087 1.7489 15.4132 2.03025 16.4377 2.271C16.9318 2.38721 17.2811 2.82813 17.2811 3.33591C17.2811 3.84348 16.9318 4.2844 16.4377 4.40061C15.3939 4.64585 15.2102 4.89793 15.0793 5.69966C14.9938 6.22389 14.5439 6.61076 14.0129 6.61696C14.0084 6.61717 14.0041 6.61717 13.9998 6.61717C13.4741 6.61717 13.0221 6.24269 12.9249 5.72486C12.7739 4.91908 12.5756 4.64735 11.5539 4.39848C11.0606 4.27863 10.7147 3.83494 10.7188 3.32737ZM27.9999 24.7732C27.9999 25.2808 27.6506 25.7217 27.1563 25.8379C26.1127 26.0832 25.929 26.3353 25.798 27.137C25.7124 27.6612 25.2625 28.0481 24.7314 28.0543C24.7272 28.0545 24.7227 28.0545 24.7184 28.0545C24.1929 28.0545 23.7406 27.68 23.6437 27.1622C23.4926 26.3564 23.2942 26.0847 22.2724 25.8358C21.7792 25.716 21.4335 25.2723 21.4374 24.7647C21.4414 24.2571 21.7941 23.819 22.2891 23.7066C23.294 23.4785 23.5078 23.1809 23.6404 22.402C23.7297 21.8763 24.1854 21.492 24.7186 21.492H24.7205C25.2544 21.4928 25.7096 21.8791 25.7974 22.4059C25.9275 23.1862 26.1319 23.4676 27.1563 23.7083C27.6506 23.8245 27.9999 24.2655 27.9999 24.7732ZM6.56254 24.7732C6.56254 25.2808 6.21327 25.7217 5.71894 25.8379C4.67539 26.0832 4.49146 26.3353 4.36073 27.137C4.27506 27.6612 3.82517 28.0481 3.2941 28.0543C3.28983 28.0545 3.28535 28.0545 3.28107 28.0545C2.75556 28.0545 2.30332 27.68 2.20633 27.1622C2.0553 26.3564 1.85685 26.0847 0.835086 25.8358C0.341829 25.716 -0.00381346 25.2723 3.17638e-05 24.7647C0.00409061 24.2571 0.356783 23.819 0.851748 23.7066C1.85663 23.4785 2.07047 23.1809 2.20313 22.402C2.29242 21.8763 2.74808 21.492 3.28129 21.492H3.28321C3.81705 21.4928 4.27229 21.8791 4.36009 22.4059C4.49018 23.1862 4.69441 23.4676 5.71894 23.7083C6.21327 23.8245 6.56254 24.2655 6.56254 24.7732ZM12.2815 12.1116C12.7756 11.9954 13.1248 11.5542 13.1248 11.0467C13.1248 10.5391 12.7756 10.0982 12.2815 9.98195C9.22749 9.26418 8.09999 8.15035 7.64134 5.39823C7.55397 4.87422 7.1028 4.48863 6.57151 4.48435C6.56852 4.48435 6.56532 4.48435 6.56233 4.48435C6.03511 4.48435 5.58222 4.86097 5.48673 5.3805C4.96571 8.21742 3.88264 9.29195 0.851748 9.98003C0.356783 10.0924 0.00409061 10.5305 3.17638e-05 11.0383C-0.00381346 11.5459 0.341829 11.9894 0.835086 12.1094C3.82859 12.8381 4.9593 13.9588 5.48823 16.7211C5.58714 17.2379 6.03916 17.6092 6.56211 17.6092C6.57344 17.6092 6.58497 17.609 6.59651 17.6085C7.13398 17.5919 7.57939 17.1873 7.64754 16.6538C7.98292 14.0254 9.19566 12.8368 12.2815 12.1116ZM6.51619 13.2124C5.9629 12.3207 5.22718 11.6236 4.26267 11.0746C4.78904 10.7837 5.23957 10.4487 5.6352 10.0597C5.9864 9.71428 6.29252 9.32463 6.5572 8.88286C6.81654 9.3069 7.11775 9.68502 7.46467 10.0251C7.85859 10.4111 8.31511 10.7489 8.84746 11.0447C8.29802 11.3472 7.82591 11.6935 7.41725 12.0904C7.07182 12.4256 6.77189 12.7986 6.51619 13.2124ZM21.4502 17.6092C21.4459 17.6092 21.4414 17.6092 21.4371 17.6092C20.9116 17.6092 20.4594 17.2347 20.3624 16.7171C19.839 13.9265 18.7521 12.8501 15.7099 12.1094C15.2166 11.9894 14.871 11.5459 14.8748 11.0383C14.8789 10.5308 15.2316 10.0924 15.7266 9.98003C18.7222 9.29985 19.8914 8.14287 20.359 5.39439C20.4485 4.86866 20.9041 4.48414 21.4374 4.48414H21.4393C21.9731 4.48521 22.4284 4.87144 22.5161 5.39823C22.9748 8.15013 24.1023 9.26396 27.1563 9.98195C27.7444 10.1202 28.109 10.7089 27.9708 11.297C27.8326 11.8849 27.2436 12.2491 26.6557 12.1114C24.6928 11.6499 23.3213 10.9871 22.3395 10.0251C21.9926 9.6848 21.6909 9.30648 21.4316 8.88222C20.8745 9.79204 20.1219 10.5032 19.1343 11.0552C19.6621 11.3515 20.114 11.6899 20.5107 12.0808C20.852 12.417 21.1505 12.793 21.41 13.2166C21.5531 12.9795 21.7095 12.7565 21.88 12.5461C22.26 12.0765 22.9487 12.0041 23.4183 12.3841C23.8876 12.7642 23.9602 13.4529 23.58 13.9225C23.0577 14.5676 22.7199 15.4475 22.5168 16.6917C22.4311 17.2159 21.9812 17.603 21.4502 17.6092Z" fill="black"/>
</svg>

<?xml version="1.0" encoding="iso-8859-1"?>
<!-- Generator: Adobe Illustrator 23.1.0, SVG Export Plug-In . SVG Version: 6.00 Build 0)  -->
<svg version="1.1" id="&#x421;&#x43B;&#x43E;&#x439;_1"
	 xmlns="http://www.w3.org/2000/svg" xmlns:xlink="http://www.w3.org/1999/xlink" x="0px" y="0px" viewBox="0 0 28 28"
	 style="enable-background:new 0 0 28 28;" xml:space="preserve">
<path d="M19.719,20.427c-3.054-0.718-4.181-1.832-4.64-4.584c-0.088-0.527-0.543-0.913-1.077-0.914c-0.001,0-0.001,0-0.002,0
	c-0.533,0-0.989,0.385-1.078,0.91c-0.468,2.748-1.637,3.906-4.633,4.586c-0.495,0.112-0.848,0.551-0.852,1.058
	c-0.004,0.507,0.342,0.951,0.835,1.071c3.042,0.741,4.129,1.817,4.652,4.608c0.097,0.518,0.549,0.892,1.075,0.892h0.013
	c0.531-0.006,0.981-0.393,1.067-0.918c0.454-2.781,1.538-3.851,4.639-4.58c0.494-0.116,0.843-0.557,0.843-1.065
	C20.562,20.984,20.213,20.544,19.719,20.427z M14.906,22.484c-0.358,0.348-0.668,0.738-0.933,1.178c-0.26-0.424-0.558-0.8-0.9-1.136
	c-0.397-0.391-0.849-0.729-1.377-1.026c0.988-0.552,1.74-1.263,2.297-2.173c0.259,0.425,0.561,0.803,0.908,1.143
	c0.391,0.383,0.844,0.719,1.371,1.013C15.748,21.773,15.299,22.103,14.906,22.484z M10.719,3.327
	c0.004-0.508,0.357-0.946,0.852-1.058c1.005-0.228,1.219-0.526,1.351-1.305c0.09-0.526,0.545-0.91,1.078-0.91h0.002
	c0.534,0.001,0.989,0.387,1.077,0.914c0.13,0.78,0.334,1.062,1.359,1.302c0.494,0.116,0.843,0.557,0.843,1.065
	c0,0.508-0.349,0.948-0.843,1.065C15.394,4.646,15.21,4.898,15.079,5.7c-0.085,0.524-0.535,0.911-1.066,0.917
	c-0.005,0-0.009,0-0.013,0c-0.526,0-0.978-0.374-1.075-0.892c-0.151-0.806-0.349-1.078-1.371-1.326
	C11.061,4.279,10.715,3.835,10.719,3.327z M28,24.773c0,0.508-0.349,0.949-0.844,1.065c-1.044,0.245-1.227,0.497-1.358,1.299
	c-0.086,0.524-0.535,0.911-1.067,0.917c-0.004,0-0.009,0-0.013,0c-0.525,0-0.978-0.375-1.075-0.892
	c-0.151-0.806-0.349-1.078-1.371-1.326c-0.493-0.12-0.839-0.563-0.835-1.071c0.004-0.508,0.357-0.946,0.852-1.058
	c1.005-0.228,1.219-0.526,1.351-1.305c0.089-0.526,0.545-0.91,1.078-0.91h0.002c0.534,0.001,0.989,0.387,1.077,0.914
	c0.13,0.78,0.335,1.062,1.359,1.302C27.651,23.824,28,24.265,28,24.773z M6.563,24.773c0,0.508-0.349,0.949-0.844,1.065
	c-1.044,0.245-1.227,0.497-1.358,1.299c-0.086,0.524-0.536,0.911-1.067,0.917c-0.004,0-0.009,0-0.013,0
	c-0.526,0-0.978-0.375-1.075-0.892c-0.151-0.806-0.349-1.078-1.371-1.326C0.342,25.716-0.004,25.272,0,24.765
	c0.004-0.508,0.357-0.946,0.852-1.058c1.005-0.228,1.219-0.526,1.351-1.305c0.089-0.526,0.545-0.91,1.078-0.91h0.002
	c0.534,0.001,0.989,0.387,1.077,0.914c0.13,0.78,0.334,1.062,1.359,1.302C6.213,23.824,6.563,24.265,6.563,24.773z M12.281,12.112
	c0.494-0.116,0.843-0.557,0.843-1.065c0-0.508-0.349-0.948-0.843-1.065C9.227,9.264,8.1,8.15,7.641,5.398
	c-0.087-0.524-0.539-0.91-1.07-0.914c-0.003,0-0.006,0-0.009,0c-0.527,0-0.98,0.377-1.076,0.896c-0.521,2.837-1.604,3.911-4.635,4.6
	C0.357,10.092,0.004,10.531,0,11.038c-0.004,0.508,0.342,0.951,0.835,1.071c2.994,0.729,4.124,1.849,4.653,4.612
	c0.099,0.517,0.551,0.888,1.074,0.888c0.011,0,0.023,0,0.034-0.001c0.537-0.017,0.983-0.421,1.051-0.955
	C7.983,14.025,9.196,12.837,12.281,12.112z M6.516,13.212c-0.553-0.892-1.289-1.589-2.254-2.138
	c0.526-0.291,0.977-0.626,1.373-1.015c0.351-0.345,0.657-0.735,0.922-1.177c0.259,0.424,0.561,0.802,0.907,1.142
	c0.394,0.386,0.85,0.724,1.383,1.02c-0.549,0.303-1.022,0.649-1.43,1.046C7.072,12.426,6.772,12.799,6.516,13.212z M21.45,17.609
	c-0.004,0-0.009,0-0.013,0c-0.525,0-0.978-0.375-1.075-0.892c-0.523-2.791-1.61-3.867-4.653-4.608
	c-0.493-0.12-0.839-0.563-0.835-1.071c0.004-0.507,0.357-0.946,0.852-1.058c2.996-0.68,4.165-1.837,4.632-4.586
	c0.09-0.526,0.545-0.91,1.078-0.91h0.002c0.534,0.001,0.989,0.387,1.077,0.914c0.459,2.752,1.586,3.866,4.64,4.584
	c0.588,0.138,0.953,0.727,0.815,1.315c-0.138,0.588-0.727,0.952-1.315,0.814c-1.963-0.461-3.334-1.124-4.316-2.086
	c-0.347-0.34-0.649-0.719-0.908-1.143c-0.557,0.91-1.31,1.621-2.297,2.173c0.528,0.296,0.98,0.635,1.376,1.026
	c0.341,0.336,0.64,0.712,0.899,1.136c0.143-0.237,0.299-0.46,0.47-0.671c0.38-0.47,1.069-0.542,1.538-0.162
	c0.469,0.38,0.542,1.069,0.162,1.538c-0.522,0.645-0.86,1.525-1.063,2.769C22.431,17.216,21.981,17.603,21.45,17.609z"/>
</svg>
